resources/haticons/SVG/date_range.svg

<svg height="24" width="24" xmlns="http://www.w3.org/2000/svg"><path d="m18.984 20.016v-11.016h-13.969v11.016zm0-16.032q.797 0 1.406.609t.609 1.406v14.016q0 .797-.609 1.383t-1.406.586h-13.969q-.844 0-1.43-.563t-.586-1.406v-14.016q0-.797.586-1.406t1.43-.609h.984v-1.969h2.016v1.969h7.969v-1.969h2.016v1.969zm-1.968 7.032v1.969h-2.016v-1.969zm-4.032 0v1.969h-1.969v-1.969zm-3.984 0v1.969h-2.016v-1.969z"/></svg>

<svg xmlns="http://www.w3.org/2000/svg" width="24" height="24"><path d="M18.984 20.016V9H5.015v11.016h13.969zm0-16.032q.797 0 1.406.609t.609 1.406v14.016q0 .797-.609 1.383t-1.406.586H5.015q-.844 0-1.43-.563t-.586-1.406V5.999q0-.797.586-1.406t1.43-.609h.984V2.015h2.016v1.969h7.969V2.015H18v1.969h.984zm-1.968 7.032v1.969H15v-1.969h2.016zm-4.032 0v1.969h-1.969v-1.969h1.969zm-3.984 0v1.969H6.984v-1.969H9z"/></svg>
